dist/img/offices/floor-txt4.svg

<svg width="1073" height="77" viewBox="0 0 1073 77" fill="none" xmlns="http://www.w3.org/2000/svg">
<g clip-path="url(#clip0_187_1966)">
<rect width="1073" height="77" fill="#C01818" fill-opacity="0.8"/>
<path d="M449.766 45.2656H447.016V50H442.297V45.2656H432.547V41.9062L442.562 27.1562H447.016V41.5156H449.766V45.2656ZM442.297 41.5156V37.6406C442.297 36.9948 442.323 36.0573 442.375 34.8281C442.427 33.599 442.469 32.8854 442.5 32.6875H442.375C441.99 33.5417 441.526 34.375 440.984 35.1875L436.797 41.5156H442.297ZM466.234 50H461.469V27.1562H474.562V31.125H466.234V37.0156H473.984V40.9688H466.234V50ZM483.422 50H478.656V25.6875H483.422V50ZM492.234 41.2344C492.234 42.9635 492.516 44.2708 493.078 45.1562C493.651 46.0417 494.578 46.4844 495.859 46.4844C497.13 46.4844 498.042 46.0469 498.594 45.1719C499.156 44.2865 499.438 42.974 499.438 41.2344C499.438 39.5052 499.156 38.2083 498.594 37.3438C498.031 36.4792 497.109 36.0469 495.828 36.0469C494.557 36.0469 493.641 36.4792 493.078 37.3438C492.516 38.1979 492.234 39.4948 492.234 41.2344ZM504.312 41.2344C504.312 44.0781 503.562 46.3021 502.062 47.9062C500.562 49.5104 498.474 50.3125 495.797 50.3125C494.12 50.3125 492.641 49.9479 491.359 49.2188C490.078 48.4792 489.094 47.4219 488.406 46.0469C487.719 44.6719 487.375 43.0677 487.375 41.2344C487.375 38.3802 488.12 36.1615 489.609 34.5781C491.099 32.9948 493.193 32.2031 495.891 32.2031C497.568 32.2031 499.047 32.5677 500.328 33.2969C501.609 34.026 502.594 35.0729 503.281 36.4375C503.969 37.8021 504.312 39.401 504.312 41.2344ZM512.047 41.2344C512.047 42.9635 512.328 44.2708 512.891 45.1562C513.464 46.0417 514.391 46.4844 515.672 46.4844C516.943 46.4844 517.854 46.0469 518.406 45.1719C518.969 44.2865 519.25 42.974 519.25 41.2344C519.25 39.5052 518.969 38.2083 518.406 37.3438C517.844 36.4792 516.922 36.0469 515.641 36.0469C514.37 36.0469 513.453 36.4792 512.891 37.3438C512.328 38.1979 512.047 39.4948 512.047 41.2344ZM524.125 41.2344C524.125 44.0781 523.375 46.3021 521.875 47.9062C520.375 49.5104 518.286 50.3125 515.609 50.3125C513.932 50.3125 512.453 49.9479 511.172 49.2188C509.891 48.4792 508.906 47.4219 508.219 46.0469C507.531 44.6719 507.188 43.0677 507.188 41.2344C507.188 38.3802 507.932 36.1615 509.422 34.5781C510.911 32.9948 513.005 32.2031 515.703 32.2031C517.38 32.2031 518.859 32.5677 520.141 33.2969C521.422 34.026 522.406 35.0729 523.094 36.4375C523.781 37.8021 524.125 39.401 524.125 41.2344ZM537.812 32.2031C538.458 32.2031 538.995 32.25 539.422 32.3438L539.062 36.8125C538.677 36.7083 538.208 36.6562 537.656 36.6562C536.135 36.6562 534.948 37.0469 534.094 37.8281C533.25 38.6094 532.828 39.7031 532.828 41.1094V50H528.062V32.5312H531.672L532.375 35.4688H532.609C533.151 34.4896 533.88 33.7031 534.797 33.1094C535.724 32.5052 536.729 32.2031 537.812 32.2031ZM549.359 43.375V39.4688H557.75V43.375H549.359ZM578.578 37.1719H587.641V49.0156C586.172 49.4948 584.786 49.8281 583.484 50.0156C582.193 50.2135 580.87 50.3125 579.516 50.3125C576.068 50.3125 573.432 49.3021 571.609 47.2812C569.797 45.25 568.891 42.3385 568.891 38.5469C568.891 34.8594 569.943 31.9844 572.047 29.9219C574.161 27.8594 577.089 26.8281 580.828 26.8281C583.172 26.8281 585.432 27.2969 587.609 28.2344L586 32.1094C584.333 31.276 582.599 30.8594 580.797 30.8594C578.703 30.8594 577.026 31.5625 575.766 32.9688C574.505 34.375 573.875 36.2656 573.875 38.6406C573.875 41.1198 574.38 43.0156 575.391 44.3281C576.411 45.6302 577.891 46.2812 579.828 46.2812C580.839 46.2812 581.865 46.1771 582.906 45.9688V41.2031H578.578V37.1719ZM600.203 36.5625L604.969 27.1562H610.188L602.609 41.1094V50H597.797V41.2656L590.219 27.1562H595.469L600.203 36.5625ZM622.734 50L617.234 32.0781H617.094C617.292 35.724 617.391 38.1562 617.391 39.375V50H613.062V27.1562H619.656L625.062 44.625H625.156L630.891 27.1562H637.484V50H632.969V39.1875C632.969 38.6771 632.974 38.0885 632.984 37.4219C633.005 36.7552 633.078 34.9844 633.203 32.1094H633.062L627.172 50H622.734Z" fill="white"/>
</g>
<defs>
<clipPath id="clip0_187_1966">
<rect width="1073" height="77" fill="white"/>
</clipPath>
</defs>
</svg>

<svg width="1073" height="77" fill="none" xmlns="http://www.w3.org/2000/svg"><g clip-path="url(#clip0_187_1966)"><path fill="#C01818" fill-opacity=".8" d="M0 0h1073v77H0z"/><path d="M449.766 45.266h-2.75V50h-4.719v-4.734h-9.75v-3.36l10.015-14.75h4.454v14.36h2.75v3.75zm-7.469-3.75V37.64c0-.646.026-1.584.078-2.813.052-1.229.094-1.943.125-2.14h-.125a17.354 17.354 0 01-1.391 2.5l-4.187 6.328h5.5zM466.234 50h-4.765V27.156h13.093v3.969h-8.328v5.89h7.75v3.954h-7.75V50zm17.188 0h-4.766V25.687h4.766V50zm8.812-8.766c0 1.73.282 3.037.844 3.922.573.886 1.5 1.328 2.781 1.328 1.271 0 2.183-.437 2.735-1.312.562-.886.844-2.198.844-3.938 0-1.729-.282-3.026-.844-3.89-.563-.865-1.485-1.297-2.766-1.297-1.271 0-2.187.432-2.75 1.297-.562.854-.844 2.15-.844 3.89zm12.078 0c0 2.844-.75 5.068-2.25 6.672s-3.588 2.407-6.265 2.407c-1.677 0-3.156-.365-4.438-1.094-1.281-.74-2.265-1.797-2.953-3.172-.687-1.375-1.031-2.98-1.031-4.813 0-2.854.745-5.073 2.234-6.656 1.49-1.583 3.584-2.375 6.282-2.375 1.677 0 3.156.365 4.437 1.094 1.281.729 2.266 1.776 2.953 3.14.688 1.365 1.031 2.964 1.031 4.797zm7.735 0c0 1.73.281 3.037.844 3.922.573.886 1.5 1.328 2.781 1.328 1.271 0 2.182-.437 2.734-1.312.563-.886.844-2.198.844-3.938 0-1.729-.281-3.026-.844-3.89-.562-.865-1.484-1.297-2.765-1.297-1.271 0-2.188.432-2.75 1.297-.563.854-.844 2.15-.844 3.89zm12.078 0c0 2.844-.75 5.068-2.25 6.672s-3.589 2.407-6.266 2.407c-1.677 0-3.156-.365-4.437-1.094-1.281-.74-2.266-1.797-2.953-3.172-.688-1.375-1.031-2.98-1.031-4.813 0-2.854.744-5.073 2.234-6.656 1.489-1.583 3.583-2.375 6.281-2.375 1.677 0 3.156.365 4.438 1.094 1.281.729 2.265 1.776 2.953 3.14.687 1.365 1.031 2.964 1.031 4.797zm13.687-9.03c.646 0 1.183.046 1.61.14l-.36 4.468c-.385-.104-.854-.156-1.406-.156-1.521 0-2.708.39-3.562 1.172-.844.781-1.266 1.875-1.266 3.281V50h-4.766V32.531h3.61l.703 2.938h.234a6.526 6.526 0 012.188-2.36 5.415 5.415 0 013.015-.906zm11.547 11.171v-3.906h8.391v3.906h-8.391zm29.219-6.203h9.063v11.844c-1.469.479-2.855.812-4.157 1a26.157 26.157 0 01-3.968.297c-3.448 0-6.084-1.01-7.907-3.032-1.812-2.031-2.718-4.942-2.718-8.734 0-3.688 1.052-6.563 3.156-8.625 2.114-2.063 5.042-3.094 8.781-3.094 2.344 0 4.604.469 6.781 1.406L586 32.11c-1.667-.833-3.401-1.25-5.203-1.25-2.094 0-3.771.703-5.031 2.11-1.261 1.406-1.891 3.297-1.891 5.672 0 2.479.505 4.375 1.516 5.687 1.02 1.302 2.5 1.953 4.437 1.953a15.66 15.66 0 003.078-.312v-4.766h-4.328v-4.031zm21.625-.61l4.766-9.406h5.219l-7.579 13.953V50h-4.812v-8.734l-7.578-14.11h5.25l4.734 9.407zM622.734 50l-5.5-17.922h-.14c.198 3.646.297 6.078.297 7.297V50h-4.329V27.156h6.594l5.406 17.469h.094l5.735-17.469h6.593V50h-4.515V39.187c0-.51.005-1.098.015-1.765.021-.667.094-2.438.219-5.313h-.141L627.172 50h-4.438z" fill="#fff"/></g><defs><clipPath id="clip0_187_1966"><path fill="#fff" d="M0 0h1073v77H0z"/></clipPath></defs></svg>
